apps/dashboard/src/ui/assets/svgs/order.svg

<svg width="24" height="25" viewBox="0 0 24 25" fill="none" xmlns="http://www.w3.org/2000/svg">
<path d="M16 9.5H8M16 12.4999H8M13 15.5H8M19.449 20.896L18.459 21.3935C18.1785 21.5345 17.8481 21.5355 17.5667 21.3964L15.9942 20.6188L14.4533 21.3929C14.172 21.5342 13.8406 21.5348 13.5588 21.3945L12 20.6185L10.4412 21.3945C10.1594 21.5348 9.82799 21.5342 9.54668 21.3929L8.00578 20.6188L6.4333 21.3964C6.15191 21.5355 5.82151 21.5345 5.54102 21.3935L4.55102 20.896C4.21321 20.7263 4.00001 20.3805 4 20.0025V4.99752C4 4.61947 4.2132 4.27374 4.551 4.104L5.541 3.60648C5.82149 3.46552 6.15189 3.46446 6.43328 3.60361L8.00576 4.3812L9.54666 3.60713C9.82797 3.46581 10.1594 3.46521 10.4412 3.60551L12 4.38151L13.5588 3.60551C13.8406 3.46521 14.172 3.46581 14.4533 3.60713L15.9942 4.3812L17.5667 3.60361C17.8481 3.46446 18.1785 3.46552 18.459 3.60648L19.449 4.104C19.7868 4.27374 20 4.61946 20 4.99752V20.0025C20 20.3806 19.7868 20.7263 19.449 20.896Z" stroke="#666666" stroke-width="1.5" stroke-linecap="round" stroke-linejoin="round"/>
</svg>

<svg xmlns="http://www.w3.org/2000/svg" width="24" height="25" fill="none"><path stroke="#666" stroke-linecap="round" stroke-linejoin="round" stroke-width="1.5" d="M16 9.5H8m8 3H8m5 3H8m11.449 5.396-.99.497a1 1 0 0 1-.892.003l-1.573-.777-1.54.774a1 1 0 0 1-.895.002L12 20.619l-1.559.776a1 1 0 0 1-.894-.002l-1.541-.774-1.573.777a1 1 0 0 1-.892-.003l-.99-.497A1 1 0 0 1 4 20.003V4.998a1 1 0 0 1 .551-.894l.99-.498a1 1 0 0 1 .892-.002l1.573.777 1.54-.774a1 1 0 0 1 .895-.001L12 4.382l1.559-.776a1 1 0 0 1 .894.001l1.541.774 1.573-.777a1 1 0 0 1 .892.002l.99.498a1 1 0 0 1 .551.894v15.005a1 1 0 0 1-.551.893Z"/></svg>
